src/components/icons/tokens/vMTA.svg

<svg width="330" height="330" viewBox="0 0 330 330" fill="none" xmlns="http://www.w3.org/2000/svg">
<g clip-path="url(#clip0)">
<circle cx="165" cy="165" r="140" fill="white"/>
<path d="M165 330C197.634 330 229.535 320.323 256.669 302.193C283.803 284.062 304.952 258.293 317.44 228.143C329.929 197.993 333.196 164.817 326.83 132.81C320.463 100.803 304.748 71.4031 281.673 48.3275C258.597 25.2518 229.197 9.53706 197.19 3.1705C165.183 -3.19606 132.007 0.0714922 101.857 12.56C71.7074 25.0484 45.9379 46.1969 27.8075 73.331C9.67708 100.465 0 132.366 0 165C0 208.761 17.3839 250.729 48.3274 281.673C79.2709 312.616 121.239 330 165 330V330ZM100.37 123.33C100.37 118.26 100.05 113.33 99.58 108.27H122.25L123.04 118.58C125.58 115.09 131.76 106.58 147.78 106.58C166.17 106.58 171.4 117.84 172.99 121.64C179.65 108.8 190.43 106.74 198.67 106.74C214.84 106.74 221.34 116.41 223.09 119.58C227.37 126.58 227.09 136.23 227.09 143.2V187H203.43V141.25C203.43 132.69 202.16 123.18 189.95 123.18C175.84 123.18 175.52 136.34 175.52 148.18V187H151.9V140.78C151.9 134.59 151.74 123.18 138.74 123.18C124 123.18 124 135.86 124 141.25V187H100.37V123.33ZM99.58 204.62H227.05V224.12H99.58V204.62ZM165 302.71C137.764 302.707 111.141 294.629 88.4964 279.496C65.8517 264.364 48.2021 242.857 37.7793 217.694C27.3564 192.532 24.6283 164.844 29.9399 138.132C35.2514 111.419 48.3641 86.8811 67.62 67.6201C93.5131 42.113 128.44 27.8759 164.786 28.0123C201.132 28.1488 235.951 42.6478 261.651 68.3486C287.352 94.0495 301.851 128.868 301.988 165.214C302.124 201.56 287.887 236.487 262.38 262.38C249.621 275.207 234.445 285.376 217.729 292.299C201.014 299.221 183.092 302.76 165 302.71V302.71ZM165 46.3701C141.537 46.3701 118.601 53.3276 99.0927 66.3628C79.5841 79.3981 64.379 97.9255 55.4002 119.602C46.4213 141.279 44.0721 165.132 48.6494 188.144C53.2268 211.156 64.5252 232.293 81.1159 248.884C97.7066 265.475 118.844 276.773 141.856 281.351C164.868 285.928 188.721 283.579 210.398 274.6C232.075 265.621 250.602 250.416 263.637 230.907C276.672 211.399 283.63 188.463 283.63 165C283.593 133.549 271.083 103.396 248.843 81.1569C226.604 58.9175 196.451 46.4071 165 46.3701V46.3701Z" fill="#020202"/>
</g>
<defs>
<clipPath id="clip0">
<rect width="330" height="330" fill="white"/>
</clipPath>
</defs>
</svg>

<svg width="330" height="330" fill="none" xmlns="http://www.w3.org/2000/svg"><g clip-path="url(#clip0)"><circle cx="165" cy="165" r="140" fill="#fff"/><path d="M165 330a165.002 165.002 0 00161.83-197.19A165.007 165.007 0 00197.19 3.17 165 165 0 10165 330zm-64.63-206.67c0-5.07-.32-10-.79-15.06h22.67l.79 10.31c2.54-3.49 8.72-12 24.74-12 18.39 0 23.62 11.26 25.21 15.06 6.66-12.84 17.44-14.9 25.68-14.9 16.17 0 22.67 9.67 24.42 12.84 4.28 7 4 16.65 4 23.62V187h-23.66v-45.75c0-8.56-1.27-18.07-13.48-18.07-14.11 0-14.43 13.16-14.43 25V187H151.9v-46.22c0-6.19-.16-17.6-13.16-17.6-14.74 0-14.74 12.68-14.74 18.07V187h-23.63v-63.67zm-.79 81.29h127.47v19.5H99.58v-19.5zM165 302.71a137.714 137.714 0 01-127.22-85.016A137.717 137.717 0 0167.62 67.62a137.721 137.721 0 01194.76 194.76A136.819 136.819 0 01165 302.71zm0-256.34A118.629 118.629 0 10283.63 165 118.767 118.767 0 00165 46.37z" fill="#020202"/></g><defs><clipPath id="clip0"><path fill="#fff" d="M0 0h330v330H0z"/></clipPath></defs></svg>
